lib/functional/media/picture-in-picture.svg

<svg xmlns="http://www.w3.org/2000/svg" fill="none" stroke="currentColor" aria-hidden="true" viewBox="0 0 32 32"><g id="Icon-PictureInPicture"><g clip-path="url(#clip0_12_2881)"><g id="size=md (32px)"><path id="Vector" stroke-linecap="round" stroke-linejoin="round" stroke-width="2" d="M27 7H5C4.44772 7 4 7.44772 4 8V24C4 24.5523 4.44772 25 5 25H27C27.5523 25 28 24.5523 28 24V8C28 7.44772 27.5523 7 27 7Z"/><path id="Vector_2" stroke-linecap="round" stroke-linejoin="round" stroke-width="2" d="M17 25V17C17 16.7348 17.1054 16.4804 17.2929 16.2929C17.4804 16.1054 17.7348 16 18 16H28"/></g></g></g><defs><clipPath id="clip0_12_2881"><rect width="32" height="32" fill="white" rx="5"/></clipPath></defs></svg>

<svg xmlns="http://www.w3.org/2000/svg" fill="none" stroke="currentColor" aria-hidden="true" viewBox="0 0 32 32"><g stroke="#101828" stroke-linecap="round" stroke-linejoin="round" stroke-width="2" clip-path="url(#a)"><path d="M27 7H5a1 1 0 0 0-1 1v16a1 1 0 0 0 1 1h22a1 1 0 0 0 1-1V8a1 1 0 0 0-1-1Z"/><path d="M17 25v-8a1 1 0 0 1 1-1h10"/></g><defs><clipPath id="a"><rect width="32" height="32" fill="#fff" rx="5"/></clipPath></defs></svg>
